X:1
T: The Marquis of Lorn
C:
R:Strathspey
Q: 128
K:D
M:4/4
L:1/16
|:g2|f3d e3c d3F D2F2|E3=C CG3 G4 G3g|f3d e3c d3F D2F2|A3F D2F2 A4 A3=c|
B3G A3F d3F D2F2|GEDD =CE3 Gc3 GE3|FD3 GE3 AF3 BG3|dcBA d3F D4 D2:|
g2|f4 da3 fd3 a3f|g3e =c3e g4 g3a|f4 da3 f3g af3|af3 da3 fd3 a3d|
f4 da3 f3g af3|g3e =cg3 ec3 ge3|a3f g3e f3d e3c|dcBA d3F D4 D3g|
f4 da3 fd3 a3f|g3e =c3e g4 g3a|f4 da3 f3g af3|af3 df3 a3b af3|
gb3 ge3 fa3 fd3|eg3 ed3 c3d eg3|a3f g3e f3d e3c|dcBA d3F D4 D2||
